X:1
T:Grabgesang
T:Johann Georg Frech (1790-1864)
T:Grabgesang
T:CPDL   —   Creative Commons Attribution Non Commercial 3.0
T:CPDL   —   Creative Commons Attribution Non Commercial 3.0
C:Johann Georg Frech
Z:CPDL   —   Creative Commons Attribution Non Commercial 3.0
%%score [ ( 1 2 ) ( 3 4 ) ]
L:1/8
Q:1/4=90
M:3/4
K:F
V:1 treble nm="Sopran\nAlt"
V:2 treble 
V:3 bass nm="Tenor\nBass"
V:4 bass 
V:1
"^Langsam"!p! (A2 c2) F2 | G4 A2 | (c2 B2) A2 | A2 G2 z2 |!<(! (A2 B2) c2!<)! | %5
w: 1.  Süß _ und|ru- hig|ist _ der|Schlum- mer|in _ der|
w: 2.  In _ dem|Er- den-|tal _ hie-|nie- den|ist _ nur|
w: 3.  Ja, _ ein|e- wig|sel'- * ges|Le- ben|nach _ der|
!>(! (c2 B2)!>)! G2 | F4 E2 | F4 z2 |!mf! (G2 c2) c2 | (c2 =B2) G>A | _B4 B2 | B>A A2 z2 | %12
w: Er- * de|küh- lem|Schoß.|Von _ des|Le- * bens _|Not und|Kum- * mer|
w: Kampf _ des|Men- schen|Los;|sei- * ner|har- * ret _|Ruh' und|Frie- * den|
w: ird'- * schen|Prü- fungs-|zeit|wird _ der|Herr _ uns _|dro- ben|ge- * ben,|
!<(! c4 c2!<)! |!f! =B4 c2 | (A2 G2) =B2 | c4 z2 |!p! (A2 c2) F2 |!<(! G4!<)! A2 | c3 B A>B | %19
w: macht der|Tod uns|freund- * lich|los;|und _ zu|je- nen|still- ver- schloss'- nen|
w: erst im|küh- len|Er- * den-|schoß.|Und, _ o|Heil uns!|dem, der wa- cker|
w: Teil an|sei- ner|Herr- * lich-|keit.|Se- * lig,|wer zur|himm- li- schen Ver-|
!>(! A2 G2!>)! z2 |!<(! G4 G2!<)! |!mf! c3!>(! G A!>)!B |"^dim." A4 G2 | (F4 E2) | F4 z2 |] %25
w: Grün- den|kann kein|Schmerz den si- chern|Ein- gang|fin- *|den.|
w: strei- tet,|ist dort|ew'- ge Him- mels-|freud be-|rei- *|tet.|
w: klä- rung|ein- geht|nach des Glau- bens|Voll- be-|wäh- *|rung!|
V:2
 F4 F2 | (F2 E2) F2 | G4 F2 | F2 E2 x2 | (F2 E2) _E2 | (_E2 D2) D2 | C4 C2 | C4 x2 | E4 G2 | %9
 F4 F2 | (E2 F2) G2 | G>F F2 x2 | (F2 ^F2) F2 | G4 G2 | (F2 E2) F2 | E4 x2 | F4 F2 | (F2 E2) F2 | %18
 G3 G F>G | F2 E2 x2 | (E2 F2) E2 | F3 E FE | F4 D2 | C6 | C4 x2 |] %25
V:3
!p! (C2 A,2) C2 | C4 C2 | C4 C2 | C2 C2 z2 |!<(! C4 F2!<)! |!>(! F4!>)! B,2 | A,4 G,2 | A,4 z2 | %8
!mf! C4 E2 | D4 =B,2 | C4 C2 | C2 C2 z2 |!<(! C4 C2!<)! |!f! D4 C2 | C4 D2 | C4 z2 | %16
!p! (C2 A,2) C2 |!<(! C4!<)! C2 | C3 C C>D |!>(! C2 C2!>)! z2 |!<(! (C2 [=B,D]2) [_B,C]2!<)! | %21
!mf! [A,C]3!>(! C C!>)!C |"^dim." C4 B,2 | (A,4 G,2) | A,4 z2 |] %25
V:4
 F,4 A,,2 | C,4 F,2 | E,4 F,2 | C,2 C,2 x2 | (F,2 G,2) A,2 | B,4 B,,2 | C,4 C,2 | F,4 x2 | %8
 C,4 C,2 | G,4 G,2 | (C,2 D,2) E,2 | F,2 F,2 x2 | A,4 A,2 | (G,2 =F,2) E,2 | (F,2 G,2) G,,2 | %15
 C,4 x2 | F,4 A,,2 | C,4 F,2 | E,3 E, F,>B,, | C,2 C,2 x2 | (C,2 =B,,2) _B,,2 | A,,3 B, A,G, | %22
 F,4 B,,2 | C,6 | F,4 x2 |] %25

